X:319
T:Natchez Under the Hill 
C:Gerald Jones
N:Transcribed by Richard A Taylor
R:bluegrass
L:1/8
Q:1/4=206
M:4/4
K:G
z6 DF | "G"G2 GA GE DB, | ^A,B, EB, DE GA | B2 Bd BA GA | "D"Bd2e d2 ef | "G"gb ge "G7"dg ed | 
"C"BA GB AG EG | "D"DE GA BG AG | ED FD "G"G2 DF | GF GA GE DB, | ^A,B, EB, DE GA | 
B^A Bc B=A GA | "D"B[gd] [g2d2] [g2d2] ef | "G"gb ge "G7"dg ed | "C"^A=A GB AG EG | 
"D"DE GA BG AG | ED FD "G"G2 dc | Bd de dB GA | Bd2e d4 | "Em"[e4e4] [e3B3]B | 
ed ef "C"e2 ef | "G"gb ge "G7"dg ed | "C"BA GB AG EG | "D"DE GA BG AG | ED FD "G"G2 dc | 
Bd2e dB GA | Bd de d4 | "Em"[e4e4] [e3B3]B | ed ef "C"e2 ef | "G"gb ge "G7"dg ed | 
"C"^A=A GB AG EG | "D"DE GA BG AG | ED FD "G"G4 | z8 | 


